X: 2333
T: Bag Of Spuds, The
R: reel
M: 4/4
K: Adorian
|:A2eA cAeA|ABcd edcB|G2dG BGdG|GABc dcBG|
A2eA cAeA|ABcd edcB|ABcd eage|dBGA BAA2:|
g|:a2ea ageg|agbg agef|gedc BGBd|~g3a bgeg|
a2ea ageg|agbg agec|~d3e~g3e|dBGA BAA2:|

